X:8
T:Eileen O'Riordan's
Z: id:dc-slide-11
M:6/8
L:1/8
K:A Mixolydian
E2A ABA|E2A ABA|e2A ABA|G3 F2G|!
E2A ABA|E2A ABA|efe dcB|A3 A3:|!
efe efe|d2B c2d|e2A ABA|G3 F2G|!
E2A ABA|E2A ABA|efe dcB|A3 A3:|!

